X:680
T: Twenty-One Highland
Z: Piano Box Version by Martin Fleischmann
H: Created 2015-04-09 /  Last Modified 2015-04-25
R: highland fling
M: 4/4
L: 1/8
K: Ador
|: C<EA,>B, C>A, B,>C | B,<D G,>A, (3B,CD C>B,  | C<EA,>B, C>A, B,>C | B,<D G,>B, A,>G, A,>B, :|
A>B| c2 b>c  a>c e>c| c2 e>c (3ege (3dcB |c2 g>c  a>c g>c  |(3ege (3dcB A>^GA>B|
| c2 e>c a>c e>c | c2 g>c (3ege (3dcB  | A<aa>g (3efg (3fga  | (3gag (3fed (3cdc (3BAG   |
| "var letzter takt" (3gag (3fed (3cBA (3GED ||

